icons/Media Video List Streamline Iconoir Regular.svg

<svg width="24" height="24" viewBox="0 0 24 24" fill="none" xmlns="http://www.w3.org/2000/svg">
<g id="Media Video List Streamline Iconoir Regular">
<path id="Vector" d="M22.131 6.1597V21.4159C22.131 21.8109 21.8109 22.131 21.4159 22.131H6.1597C5.76474 22.131 5.44458 21.8109 5.44458 21.4159V6.1597C5.44458 5.76474 5.76474 5.44458 6.1597 5.44458H21.4159C21.8109 5.44458 22.131 5.76474 22.131 6.1597Z" stroke="black" stroke-linecap="round" stroke-linejoin="round"/>
<path id="Vector_2" d="M18.5554 1.8689H2.58402C2.18905 1.8689 1.8689 2.18905 1.8689 2.58402V18.5554" stroke="black" stroke-linecap="round" stroke-linejoin="round"/>
<path id="Vector_3" d="M12.4871 10.862C12.0105 10.5761 11.4041 10.9194 11.4041 11.4752V16.1005C11.4041 16.6564 12.0105 16.9996 12.4871 16.7137L16.3415 14.4011C16.8044 14.1234 16.8044 13.4523 16.3415 13.1746L12.4871 10.862Z" stroke="black" stroke-linecap="round" stroke-linejoin="round"/>
</g>
</svg>

<svg xmlns="http://www.w3.org/2000/svg" width="24" height="24" fill="none"><g stroke="#000" stroke-linecap="round" stroke-linejoin="round"><path d="M22.131 6.16v15.256c0 .395-.32.715-.715.715H6.16a.715.715 0 0 1-.715-.715V6.16c0-.395.32-.715.715-.715h15.256c.395 0 .715.32.715.715"/><path d="M18.555 1.869H2.584a.715.715 0 0 0-.715.715v15.971M12.487 10.862a.715.715 0 0 0-1.083.613v4.626c0 .555.607.899 1.083.613l3.855-2.313a.715.715 0 0 0 0-1.226z"/></g></svg>
